(1001)
(T2 D=3.17 CR=0 - ZMIN=-3.5 - flat end mill)
G90 G94
G17
G21
G28 G91 Z0
G90

(Drill1)
M0
(MANUAL TOOL CHANGE TO T2)
S5000 M3
G17 G90 G94
G54
G0 X77.203 Y35.584
Z7
G0 Z3
Z1
G1 Z-1 F333.3
G0 Z3
Y11.915
Z1
G1 Z-1 F333.3
G0 Z3
X10.797
Z1
G1 Z-1 F333.3
G0 Z3
X28.995 Y12.36
Z1
G1 Z-1 F333.3
G0 Z3
Y35.139
Z1
G1 Z-1 F333.3
G0 Z3
X10.797 Y35.584
Z1
G1 Z-1 F333.3
G0 Z3
Z7

(2D Contour1)
S30000 M3
G0 X24.856 Y1.464
Z7
Z2.817
G19 G3 Y1.781 Z2.5 J0.317 K0 F500
G1 Y2.098
G17 G3 X24.539 Y2.415 I-0.317 J0
G1 X9 Z1.957
G2 X2.415 Y9 Z1.596 I0 J6.585
G1 Y38 Z0.583
G2 X9 Y44.585 Z0.222 I6.585 J0
G1 X44 Z-1
X79
G2 X85.585 Y38 I0 J-6.585
G1 Y9
G2 X79 Y2.415 I-6.585 J0
G1 X9
G2 X2.415 Y9 I0 J6.585
G1 Y38
G2 X9 Y44.585 I6.585 J0
G1 X44
X72.636 Z-2
X79
G2 X85.585 Y38 I0 J-6.585
G1 Y9
G2 X79 Y2.415 I-6.585 J0
G1 X9
G2 X2.415 Y9 I0 J6.585
G1 Y38
G2 X9 Y44.585 I6.585 J0
G1 X44
X72.636
X79 Z-2.222
G2 X85.585 Y38 Z-2.583 I0 J-6.585
G1 Y27.625 Z-2.946
Z-2
Y26.071
Y19.455
Z-3 F333.3
Y9 F500
G2 X79 Y2.415 I-6.585 J0
G1 X48.687
Z-2
X40.517
Z-3 F333.3
X9 F500
G2 X2.415 Y9 I0 J6.585
G1 Y18.491
Z-2
Y26.661
Z-3 F333.3
Y38 F500
G2 X9 Y44.585 I6.585 J0
G1 X38.245
Z-2
X46.415
Z-3 F333.3
X79 F500
G2 X85.585 Y38 I0 J-6.585
G1 Y27.625
Z-2
Y26.071
Y19.455
Z-3.231 F333.3
Y11.753 Z-3.5 F500
Y9
G2 X79 Y2.415 I-6.585 J0
G1 X48.687
Z-2
X40.517
Z-3.5 F333.3
X9 F500
G2 X2.415 Y9 I0 J6.585
G1 Y18.491
Z-2
Y26.661
Z-3.5 F333.3
Y38 F500
G2 X9 Y44.585 I6.585 J0
G1 X38.245
Z-2
X46.415
Z-3.5 F333.3
X79 F500
G2 X85.585 Y38 I0 J-6.585
G1 Y27.625
Z-2
Y19.455
Z-3.5 F333.3
Y11.753 F500
G3 X85.902 Y11.436 I0.317 J0
G1 X86.219
G18 G2 X86.536 Z-3.183 I0 K0.317
G0 Z7
G17
G28 G91 Z0
G90
G28 G91 X0 Y0
G90
M5
M30
