(1001)
(T2 D=3.17 CR=0 - ZMIN=-3.5 - flat end mill)
G90 G94
G17
G21
G28 G91 Z0
G90

(Drill1)
M0
(MANUAL TOOL CHANGE TO T2)
S5000 M3
G17 G90 G94
G54
G0 X49 Y12
Z7
G0 Z3
Z1
G1 Z-1 F333.3
G0 Z3
Y29.672
Z1
G1 Z-1 F333.3
G0 Z3
X29
Z1
G1 Z-1 F333.3
G0 Z3
Y12
Z1
G1 Z-1 F333.3
G0 Z3
X9
Z1
G1 Z-1 F333.3
G0 Z3
Y29.672
Z1
G1 Z-1 F333.3
G0 Z3
Z7

(2D Contour1)
S30000 M3
G0 X1.464 Y23.26
Z7
Z2.817
G18 G2 X1.781 Z2.5 I0.317 K0 F500
G1 X2.098
G17 G3 X2.415 Y23.577 I0 J0.317
G1 Y32.672 Z2.182
G2 X9 Y39.257 Z1.821 I6.585 J0
G1 X89.788 Z-1
X170.577
G2 X177.162 Y32.672 I0 J-6.585
G1 Y9
G2 X170.577 Y2.415 I-6.585 J0
G1 X9
G2 X2.415 Y9 I0 J6.585
G1 Y32.672
G2 X9 Y39.257 I6.585 J0
G1 X89.788
X125.603 Z-2
X170.577
G2 X177.162 Y32.672 I0 J-6.585
G1 Y25.976
Z-1.5
Y17.806
Z-2 F333.3
Y9 F500
G2 X170.577 Y2.415 I-6.585 J0
G1 X95.01
Z-1.5
X86.84
Z-2 F333.3
X9 F500
G2 X2.415 Y9 I0 J6.585
G1 Y16.52
Z-1.5
Y24.69
Z-2 F333.3
Y32.672 F500
G2 X9 Y39.257 I6.585 J0
G1 X86.506
Z-1.5
X94.676
Z-2 F333.3
X125.603 F500
X161.418 Z-3
X170.577
G2 X177.162 Y32.672 I0 J-6.585
G1 Y25.976
Z-1.5
Y17.806
Z-3 F333.3
Y9 F500
G2 X170.577 Y2.415 I-6.585 J0
G1 X95.01
Z-1.5
X86.84
Z-3 F333.3
X9 F500
G2 X2.415 Y9 I0 J6.585
G1 Y16.52
Z-1.5
Y24.69
Z-3 F333.3
Y32.672 F500
G2 X9 Y39.257 I6.585 J0
G1 X86.506
Z-1.5
X94.676
Z-3 F333.3
X161.418 F500
X170.577 Z-3.256
G2 X176.97 Y34.251 Z-3.5 I0 J-6.585
X177.162 Y32.672 I-6.393 J-1.579
G1 Y25.976
Z-1.5
Y17.806
Z-3.5 F333.3
Y9 F500
G2 X170.577 Y2.415 I-6.585 J0
G1 X95.01
Z-1.5
X86.84
Z-3.5 F333.3
X9 F500
G2 X2.415 Y9 I0 J6.585
G1 Y16.52
Z-1.5
Y24.69
Z-3.5 F333.3
Y32.672 F500
G2 X9 Y39.257 I6.585 J0
G1 X86.506
Z-1.5
X94.676
Z-3.5 F333.3
X170.577 F500
G2 X176.97 Y34.251 I0 J-6.585
G3 X177.354 Y34.019 I0.308 J0.076
G1 X177.661 Y34.095
X177.73 Y34.112 Z-3.492
X177.795 Y34.128 Z-3.469
X177.853 Y34.143 Z-3.431
X177.902 Y34.155 Z-3.381
X177.939 Y34.164 Z-3.321
X177.961 Y34.169 Z-3.254
X177.969 Y34.171 Z-3.183
G0 Z7
G28 G91 Z0
G90
G28 G91 X0 Y0
G90
M5
M30
