(1001)
(T2 D=3.17 CR=0 - ZMIN=-3.5 - flat end mill)
G90 G94
G17
G21
G28 G91 Z0
G90

(Drill1)
M0
(MANUAL TOOL CHANGE TO T2)
S5000 M3
G17 G90 G94
G54
G0 X104 Y24
Z8
G0 Z3
Z1
G1 Z-1 F333.3
G0 Z3
X64
Z1
G1 Z-1 F333.3
G0 Z3
X24
Z1
G1 Z-1 F333.3
G0 Z3
Y44
Z1
G1 Z-1 F333.3
G0 Z3
Y64
Z1
G1 Z-1 F333.3
G0 Z3
X63.063 Y113.554
Z1
G1 Z-1 F333.3
G0 Z3
X101.309 Y135.63
Z1
G1 Z-1 F333.3
G0 Z3
X63.067 Y157.714
Z1
G1 Z-1 F333.3
G0 Z3
X24 Y214
Z1
G1 Z-1 F333.3
G0 Z3
Y234
Z1
G1 Z-1 F333.3
G0 Z3
Y254
Z1
G1 Z-1 F333.3
G0 Z3
X64
Z1
G1 Z-1 F333.3
G0 Z3
X104
Z1
G1 Z-1 F333.3
G0 Z3
Z8

(2D Contour1)
S30000 M3
G0 X1.464 Y38.456
Z7
Z2.817
G18 G2 X1.781 Z2.5 I0.317 K0 F500
G1 X2.098
G17 G3 X2.415 Y38.773 I0 J0.317
G1 Y139 Z-1
Y254
G2 X24 Y275.585 I21.585 J0
G1 X104
G2 X125.585 Y254 I0 J-21.585
G1 Y24
G2 X104 Y2.415 I-21.585 J0
G1 X24
G2 X2.415 Y24 I0 J21.585
G1 Y139
Y204.706 Z-2
Y254
G2 X24 Y275.585 I21.585 J0
G1 X104
G2 X125.585 Y254 I0 J-21.585
G1 Y24
G2 X104 Y2.415 I-21.585 J0
G1 X24
G2 X2.415 Y24 I0 J21.585
G1 Y139
Y204.706
Y254 Z-2.75
G2 X8.36 Y268.876 Z-3 I21.585 J0
X24 Y275.585 I15.64 J-14.876
G1 X54.752
Z-2
X67.922
Z-3 F333.3
X104 F500
G2 X125.585 Y254 I0 J-21.585
G1 Y145.571
Z-2
Y132.401
Z-3 F333.3
Y24 F500
G2 X104 Y2.415 I-21.585 J0
G1 X67.15
Z-2
X53.98
Z-3 F333.3
X24 F500
G2 X2.415 Y24 I0 J21.585
G1 Y130.292
Z-2
Y143.462
Z-3 F333.3
Y254 F500
G2 X8.36 Y268.876 I21.585 J0
X24 Y275.585 Z-3.266 I15.64 J-14.876
G1 X39.36 Z-3.5
X54.752
Z-2
X67.922
Z-3.5 F333.3
X104 F500
G2 X125.585 Y254 I0 J-21.585
G1 Y145.571
Z-2
Y132.401
Z-3.5 F333.3
Y24 F500
G2 X104 Y2.415 I-21.585 J0
G1 X67.15
Z-2
X53.98
Z-3.5 F333.3
X24 F500
G2 X2.415 Y24 I0 J21.585
G1 Y130.292
Z-2
Y143.462
Z-3.5 F333.3
Y254 F500
G2 X24 Y275.585 I21.585 J0
G1 X39.36
G3 X39.677 Y275.902 I0 J0.317
G1 Y276.219
G19 G3 Y276.536 Z-3.183 J0 K0.317
G0 Z7
G17
G28 G91 Z0
G90
G28 G91 X0 Y0
G90
M5
M30
