(1001)
(T2 D=3.17 CR=0 - ZMIN=-3.5 - flat end mill)
G90 G94
G17
G21
G28 G91 Z0
G90

(Drill1)
M0
(MANUAL TOOL CHANGE TO T2)
S5000 M3
G17 G90 G94
G54
G0 X10 Y55
Z7
G0 Z3
Z1
G1 Z-1 F333.3
G0 Z3
X30
Z1
G1 Z-1 F333.3
G0 Z3
Y10
Z1
G1 Z-1 F333.3
G0 Z3
X10
Z1
G1 Z-1 F333.3
G0 Z3
X81.393 Y13.9
Z1
G1 Z-1 F333.3
G0 Z3
X91.393
Z1
G1 Z-1 F333.3
G0 Z3
X108 Y10
Z1
G1 Z-1 F333.3
G0 Z3
X128
Z1
G1 Z-1 F333.3
G0 Z3
Y55
Z1
G1 Z-1 F333.3
G0 Z3
X108
Z1
G1 Z-1 F333.3
G0 Z3
Z7

(2D Contour1)
S30000 M3
G0 X136.536 Y39.2
Z7
Z2.817
G18 G3 X136.219 Z2.5 I-0.317 K0 F500
G1 X135.902
G17 G3 X135.585 Y38.883 I0 J-0.317
G1 Y9 Z1.456
G2 X129 Y2.415 Z1.095 I-6.585 J0
G1 X69 Z-1
X9
G2 X2.415 Y9 I0 J6.585
G1 Y59
G2 X9 Y65.585 I6.585 J0
G1 X22.496
G2 X26.08 Y64.524 I0 J-6.585
G3 X111.92 Y64.524 I42.92 J66.155
G2 X115.504 Y65.585 I3.584 J-5.524
G1 X129
G2 X135.585 Y59 I0 J-6.585
G1 Y9
G2 X129 Y2.415 I-6.585 J0
G1 X69
X35.373 Z-2
X9
G2 X2.415 Y9 I0 J6.585
G1 Y29.063
Z-1.5
Y37.233
Z-2 F333.3
Y59 F500
G2 X9 Y65.585 I6.585 J0
G1 X11.83
Z-1.5
X20
Z-2 F333.3
X22.496 F500
G2 X26.08 Y64.524 I0 J-6.585
G3 X111.92 Y64.524 I42.92 J66.155
G2 X115.504 Y65.585 I3.584 J-5.524
G1 X118.328
Z-1.5
X126.498
Z-2 F333.3
X129 F500
G2 X135.585 Y59 I0 J-6.585
G1 Y37.817
Z-1.5
Y29.647
Z-2 F333.3
Y9 F500
G2 X129 Y2.415 I-6.585 J0
G1 X69.524
Z-1.5
X61.354
Z-2 F333.3
X35.373 F500
X9 Z-2.784
G2 X3.126 Y6.023 Z-3 I0 J6.585
X2.415 Y9 I5.874 J2.977
G1 Y29.063
Z-1.5
Y37.233
Z-3 F333.3
Y59 F500
G2 X9 Y65.585 I6.585 J0
G1 X11.83
Z-1.5
X20
Z-3 F333.3
X22.496 F500
G2 X26.08 Y64.524 I0 J-6.585
G3 X111.92 Y64.524 I42.92 J66.155
G2 X115.504 Y65.585 I3.584 J-5.524
G1 X118.328
Z-1.5
X126.498
Z-3 F333.3
X129 F500
G2 X135.585 Y59 I0 J-6.585
G1 Y37.817
Z-1.5
Y29.647
Z-3 F333.3
Y9 F500
G2 X129 Y2.415 I-6.585 J0
G1 X69.524
Z-1.5
X61.354
Z-3 F333.3
X9 F500
G2 X3.126 Y6.023 I0 J6.585
X2.415 Y9 Z-3.092 I5.874 J2.977
G1 Y22.725 Z-3.5
Y29.063
Z-1.5
Y37.233
Z-3.5 F333.3
Y59 F500
G2 X9 Y65.585 I6.585 J0
G1 X11.83
Z-1.5
X20
Z-3.5 F333.3
X22.496 F500
G2 X26.08 Y64.524 I0 J-6.585
G3 X111.92 Y64.524 I42.92 J66.155
G2 X115.504 Y65.585 I3.584 J-5.524
G1 X118.328
Z-1.5
X126.498
Z-3.5 F333.3
X129 F500
G2 X135.585 Y59 I0 J-6.585
G1 Y37.817
Z-1.5
Y29.647
Z-3.5 F333.3
Y9 F500
G2 X129 Y2.415 I-6.585 J0
G1 X69.524
Z-1.5
X61.354
Z-3.5 F333.3
X9 F500
G2 X2.415 Y9 I0 J6.585
G1 Y22.725
G3 X2.098 Y23.042 I-0.317 J0
G1 X1.781
G18 G3 X1.464 Z-3.183 I0 K0.317
G0 Z7
G17
G28 G91 Z0
G90
G28 G91 X0 Y0
G90
M5
M30
