(1001)
(T2 D=3.17 CR=0 - ZMIN=-3.5 - flat end mill)
G90 G94
G17
G21
G28 G91 Z0
G90

(Drill2)
M0
(MANUAL TOOL CHANGE TO T2)
S5000 M3
G17 G90 G94
G54
G0 X130.576 Y64
Z8
G0 Z4
Z2
G1 Z-1 F333.3
G0 Z4
Y24
Z2
G1 Z-1 F333.3
G0 Z4
Z8

(2D Contour1)
S30000 M3
G0 X1.464 Y54.942
Z7
Z2.817
G18 G2 X1.781 Z2.5 I0.317 K0 F500
G1 X2.098
G17 G3 X2.415 Y55.259 I0 J0.317
G1 Y74 Z1.846
G2 X14 Y85.585 Z1.21 I11.585 J0
G1 X77.288 Z-1
X130.576
G2 X152.161 Y64 I0 J-21.585
G1 Y24
G2 X130.576 Y2.415 I-21.585 J0
G1 X14
G2 X2.415 Y14 I0 J11.585
G1 Y74
G2 X14 Y85.585 I11.585 J0
G1 X77.288
X115.319 Z-2
X130.576
G2 X152.161 Y64 I0 J-21.585
G1 Y24
G2 X130.576 Y2.415 I-21.585 J0
G1 X14
G2 X2.415 Y14 I0 J11.585
G1 Y74
G2 X14 Y85.585 I11.585 J0
G1 X77.288
X115.319
X130.576 Z-2.401
G2 X149.354 Y74.644 Z-3 I0 J-21.585
X152.161 Y64 I-18.778 J-10.644
G1 Y50.419
Z-2
Y39.249
Z-3 F333.3
Y24 F500
G2 X130.576 Y2.415 I-21.585 J0
G1 X76.566
Z-2
X65.396
Z-3 F333.3
X14 F500
G2 X2.415 Y14 I0 J11.585
G1 Y40.643
Z-2
Y51.813
Z-3 F333.3
Y74 F500
G2 X14 Y85.585 I11.585 J0
G1 X66.089
Z-2
X77.259
Z-3 F333.3
X130.576 F500
G2 X149.354 Y74.644 I0 J-21.585
X152.161 Y64 Z-3.293 I-18.778 J-10.644
G1 Y56.116 Z-3.5
Y50.419
Z-2
Y39.249
Z-3.5 F333.3
Y24 F500
G2 X130.576 Y2.415 I-21.585 J0
G1 X76.566
Z-2
X65.396
Z-3.5 F333.3
X14 F500
G2 X2.415 Y14 I0 J11.585
G1 Y40.643
Z-2
Y51.813
Z-3.5 F333.3
Y74 F500
G2 X14 Y85.585 I11.585 J0
G1 X66.089
Z-2
X77.259
Z-3.5 F333.3
X130.576 F500
G2 X152.161 Y64 I0 J-21.585
G1 Y56.116
G3 X152.478 Y55.799 I0.317 J0
G1 X152.795
G18 G2 X153.112 Z-3.183 I0 K0.317
G0 Z7
G17
G28 G91 Z0
G90
G28 G91 X0 Y0
G90
M5
M30
